assets/images/cellphone.svg

<svg viewBox="0 0 138.31 239.49" xmlns="http://www.w3.org/2000/svg" xmlns:xlink="http://www.w3.org/1999/xlink"><linearGradient id="a" gradientUnits="userSpaceOnUse" x1="45.81" x2="92.5" y1="18.57" y2="18.57"><stop offset="0" stop-color="#7db429"/><stop offset="1" stop-color="#abc910"/></linearGradient><linearGradient id="b" x1="108.07" x2="119.74" xlink:href="#a" y1="18.57" y2="18.57"/><linearGradient id="c" x1="0" x2="138.31" xlink:href="#a" y1="119.74" y2="119.74"/><linearGradient id="d" x1="60.35" x2="77.96" xlink:href="#a" y1="213.14" y2="213.14"/><path d="m88.61 16.45h-38.91c-2.15 0-3.89.95-3.89 2.12s1.74 2.11 3.89 2.11h38.91c2.15 0 3.89-.95 3.89-2.11s-1.74-2.12-3.89-2.12z" fill="url(#a)"/><path d="m115.85 16.45h-3.85c-2.15 0-3.89.95-3.89 2.12s1.74 2.11 3.89 2.11h3.89c2.15 0 3.89-.95 3.89-2.11s-1.78-2.12-3.93-2.12z" fill="url(#b)"/><path d="m138.31 30v-12.93a17.07 17.07 0 0 0 -17.06-17.07h-104.18a17.09 17.09 0 0 0 -17.07 17.07v205.35a17.09 17.09 0 0 0 17.07 17.07h104.17a17.09 17.09 0 0 0 17.07-17.07v-28.42zm-13.78 192.42a3.29 3.29 0 0 1 -3.28 3.28h-104.18a3.29 3.29 0 0 1 -3.29-3.28v-21.85h110.75zm0-35.63h-110.75v-149.66h110.75zm0-163.44h-110.75v-6.28a3.3 3.3 0 0 1 3.29-3.29h104.17a3.3 3.3 0 0 1 3.29 3.29z" fill="url(#c)"/><path d="m69.15 221.94a8.8 8.8 0 1 0 -8.8-8.8 8.8 8.8 0 0 0 8.8 8.8z" fill="url(#d)"/></svg>

<svg xmlns="http://www.w3.org/2000/svg" xmlns:xlink="http://www.w3.org/1999/xlink" viewBox="0 0 138.31 239.49"><defs><style>.cls-1{fill:url(#linear-gradient);}.cls-2{fill:url(#linear-gradient-2);}.cls-3{fill:url(#linear-gradient-3);}.cls-4{fill:url(#linear-gradient-4);}</style><linearGradient id="linear-gradient" x1="45.81" y1="18.57" x2="92.5" y2="18.57" gradientUnits="userSpaceOnUse"><stop offset="0" stop-color="#7db429"/><stop offset="1" stop-color="#abc910"/></linearGradient><linearGradient id="linear-gradient-2" x1="108.07" y1="18.57" x2="119.74" y2="18.57" xlink:href="#linear-gradient"/><linearGradient id="linear-gradient-3" x1="0" y1="119.74" x2="138.31" y2="119.74" xlink:href="#linear-gradient"/><linearGradient id="linear-gradient-4" x1="60.35" y1="213.14" x2="77.96" y2="213.14" xlink:href="#linear-gradient"/></defs><title>mob_phone_footer</title><g id="Layer_2" data-name="Layer 2"><g id="Layer_1-2" data-name="Layer 1"><path class="cls-1" d="M88.61,16.45H49.7c-2.15,0-3.89.95-3.89,2.12s1.74,2.11,3.89,2.11H88.61c2.15,0,3.89-.95,3.89-2.11S90.76,16.45,88.61,16.45Z"/><path class="cls-2" d="M115.85,16.45H112c-2.15,0-3.89.95-3.89,2.12s1.74,2.11,3.89,2.11h3.89c2.15,0,3.89-.95,3.89-2.11S118,16.45,115.85,16.45Z"/><path class="cls-3" d="M138.31,30V17.07A17.07,17.07,0,0,0,121.25,0H17.07A17.09,17.09,0,0,0,0,17.07V222.42a17.09,17.09,0,0,0,17.07,17.07H121.24a17.09,17.09,0,0,0,17.07-17.07V194h0V30ZM124.53,222.42a3.29,3.29,0,0,1-3.28,3.28H17.07a3.29,3.29,0,0,1-3.29-3.28V200.57H124.53Zm0-35.63H13.78V37.13H124.53Zm0-163.44H13.78V17.07a3.3,3.3,0,0,1,3.29-3.29H121.24a3.3,3.3,0,0,1,3.29,3.29Z"/><path class="cls-4" d="M69.15,221.94a8.8,8.8,0,1,0-8.8-8.8A8.8,8.8,0,0,0,69.15,221.94Z"/></g></g></svg>
